X:165
T: Dwyer's
S: "Treoir"
Z: B.Black
M: 6/8
L: 1/8
R: jig
K: G
d | efg edB | cBA BGD | G2 G BdB | BAG ABd |
efg edB | cBA BGD | G2 G BdB | AGF G2 :|
D | GBd g2 g | agf g2 e | fed edB | cBA BGD |
GBd gfg | agf g2 e | fed edB | AGF G2 :|
